X:1
T:Heavenly Power, 77.77 D
T:Heavenly Power, 77.77 D
T:Adam Geibel, 1896
T:Public Domain Courtesy of the Cyber Hymnal™
C:Adam Geibel, 1896
Z:Public Domain
Z:Courtesy of the Cyber Hymnal™
%%score ( 1 2 ) ( 3 4 )
L:1/8
Q:1/4=94
M:3/4
K:G
V:1 treble 
V:2 treble 
V:3 bass 
V:4 bass 
V:1
 D>D | [DG]3 [DB] [DG][DB] | [Gd]4 [Ge]>[Ge] | [Gd]3 [GB] G[GB] | [FA]4 D>D | [DG]3 [DB] [DG][DB] | %6
 [Gd]4 [Ge]>[Ge] | [Gd]3 [GB] [FA]<[FA] | [DG]4 [Gd]>[Gd] | [Ge]3 [Ge] [Gd]>[GB] | %10
 [Gd]4 [Gd]>[Gd] | [Ge]3 [Gd] [GB]G | [FA]4 D>D | [DG]3 [DB] [DG][DB] | [Gd]4 [Ge]>[Ge] | %15
 [Gd]3 [GB] [FA]<[FA] | [DG]4 |] %17
V:2
 D>D | x6 | x6 | x4 G x | x4 D>D | x6 | x6 | x6 | x6 | x6 | x6 | x5 G | x4 D>D | x6 | x6 | x6 | %16
 x4 |] %17
V:3
 [G,B,]>[G,B,] | [G,B,]3 [G,B,] [G,B,][G,B,] | [G,B,]4 [G,C]>[G,C] | [G,B,]3 [G,D] [A,^C][A,C] | %4
 [D,D]4 [D,=C]>[D,C] | [G,B,]3 [G,B,] [G,B,][G,B,] | [G,B,]4 [C,C]>[C,C] | %7
 [D,B,]3 [D,D] [D,C]<[D,C] | [G,,B,]4 [G,B,]>[G,B,] | C3 C [B,D]>[G,D] | [B,D]4 [G,B,]>[G,B,] | %11
 [C,C]3 [G,B,] [G,D][A,^C] | [D,D]4 [D,=C]>[D,C] | [G,B,]3 [G,B,] [G,B,][G,B,] | %14
 [G,B,]4 [C,C]>[C,C] | [D,B,]3 [D,D] [D,C]<[D,C] | [G,,B,]4 |] %17
V:4
 x2 | x6 | x6 | x6 | x6 | x6 | x6 | x6 | x6 | C3 C x2 | x6 | x6 | x6 | x6 | x6 | x6 | x4 |] %17

